X: 1
T:the Harvest is in
M:C|
O:England
A:North-West
R:Reel
K:A
A2A,2 AcBA| B2E2 BdcB| c2A2 cedc| BAGF E3G|\
A2A,2 AcBA| B2E2 BdcB|
ce^df egfa| gef^d e4::\
ecac ecac| d2cB BEdE| BEdE c2BA| AEcA ecfd|
geaf {a}g2fe| a(f/g/a)f e(c/d/ e)c| d(B/c/ d)c BGEe| caBg a2A2:|
